X:258
T:Roddy McDonald’s Fancy
R:reel
M:4/4
L:1/8
K:A
af |: ecBd cAA2 | BccB c2af | ecBd cAAB | cffe f2af :|
e3f a3f | ecBc ecaf | ecef afec | Bffe f2af |
e3f a3f | ecBc ecaf | ecBd cAAB | cffe f2af |:
B3c A3B | c3B c2af | ecBd cAAB |1 cffe f2ec :|2 cffe f2ef ||
a2ef aefa | efae f2ef | a2ef aefc| Bffe f2ef |
a2’ba fbaf | eafe c2af | ecBd cAAB | cffe f2af |]
